img/google.svg

<svg width="20" height="21" viewBox="0 0 20 21" fill="none" xmlns="http://www.w3.org/2000/svg">
<g clip-path="url(#clip0_4063_1072)">
<path d="M19.9629 10.7213C19.9629 9.90215 19.8951 9.30443 19.7483 8.68457H10.2041V12.3816H15.8063C15.6934 13.3003 15.0835 14.684 13.7281 15.6137L16.9359 18.049C18.856 16.3111 19.9629 13.7541 19.9629 10.7213Z" fill="#4081F7"/>
<path d="M10.2037 20.4616C12.9483 20.4616 15.2524 19.5761 16.9354 18.0486L13.7276 15.6133C12.8693 16.2 11.7171 16.6095 10.2037 16.6095C7.5155 16.6095 5.23395 14.8717 4.42065 12.4697L1.12256 14.9713C2.79418 18.2256 6.22783 20.4616 10.2037 20.4616Z" fill="#2EA950"/>
<path d="M4.42144 12.4705C4.20684 11.8507 4.08265 11.1865 4.08265 10.5002C4.08265 9.81393 4.20684 9.14981 4.41015 8.52995L1.12335 6.02832C0.434389 7.37876 0.0390625 8.89524 0.0390625 10.5002C0.0390625 12.1053 0.434389 13.6217 1.12335 14.9721L4.42144 12.4705Z" fill="#FEBC03"/>
<path d="M10.2037 4.39008C12.1125 4.39008 13.4001 5.19811 14.1343 5.87337L17.0032 3.12824C15.2413 1.52323 12.9483 0.538086 10.2037 0.538086C6.22786 0.538086 2.79419 2.77401 1.12256 6.02828L4.40937 8.52991C5.23398 6.12794 7.51554 4.39008 10.2037 4.39008Z" fill="#EE402F"/>
</g>
<defs>
<clipPath id="clip0_4063_1072">
<rect width="20" height="20" fill="white" transform="translate(0 0.5)"/>
</clipPath>
</defs>
</svg>

<svg width="20" height="21" fill="none" xmlns="http://www.w3.org/2000/svg"><g clip-path="url(#a)"><path d="M19.963 10.721c0-.819-.068-1.417-.215-2.036h-9.544v3.697h5.602c-.113.918-.722 2.302-2.078 3.232l3.208 2.435c1.92-1.738 3.027-4.295 3.027-7.328Z" fill="#4081F7"/><path d="M10.204 20.462c2.744 0 5.048-.886 6.731-2.413l-3.207-2.436c-.859.587-2.01.997-3.524.997a6.108 6.108 0 0 1-5.783-4.14L1.123 14.97c1.671 3.255 5.105 5.49 9.08 5.49Z" fill="#2EA950"/><path d="M4.421 12.47a6.022 6.022 0 0 1-.338-1.97c0-.686.124-1.35.327-1.97L1.123 6.028A9.81 9.81 0 0 0 .04 10.5c0 1.605.395 3.122 1.084 4.472l3.298-2.502Z" fill="#FEBC03"/><path d="M10.204 4.39c1.909 0 3.196.808 3.93 1.483l2.87-2.745c-1.763-1.605-4.056-2.59-6.8-2.59-3.976 0-7.41 2.236-9.081 5.49L4.409 8.53a6.134 6.134 0 0 1 5.795-4.14Z" fill="#EE402F"/></g><defs><clipPath id="a"><path fill="#fff" transform="translate(0 .5)" d="M0 0h20v20H0z"/></clipPath></defs></svg>
